X: 110
M: C
L: 1/8
K: C
d> c A2 z G/A/ | c> c c> c c> G c> a |
g> a c'> e g2 z a | g> a c'> e
g> e d> c | d d/ e/ (f/e/) (d/c/) {B}A2 z G/A/ |
c> c c> c c G c> a | g> e d> e
c2 z ][ G/F/ | E> G c> G A> G c> G |
e> g (f/e/) (d/c/) {B}A2 zG/F/ | E> G c> G
c'> b a> g a> g f> e | d> e (f/e/)
(d/c/) A2 z G | c> c c> c c> G c> a |
g> e d> e c2 z |]

